symbols/web/add_box/materialsymbolsoutlined/add_box_wght700grad200fill1_24px.svg

<svg xmlns="http://www.w3.org/2000/svg" height="24" width="24"><path d="M10.5 17.35h3V13.5h3.85v-3H13.5V6.65h-3v3.85H6.65v3h3.85ZM5.3 22.1q-1.425 0-2.412-.987Q1.9 20.125 1.9 18.7V5.3q0-1.425.988-2.413Q3.875 1.9 5.3 1.9h13.4q1.425 0 2.413.987.987.988.987 2.413v13.4q0 1.425-.987 2.413-.988.987-2.413.987Z"/></svg>

<svg xmlns="http://www.w3.org/2000/svg" height="24" width="24"><path d="M10.5 17.35H13.5V13.5H17.35V10.5H13.5V6.65H10.5V10.5H6.65V13.5H10.5ZM5.25 22.15Q3.825 22.15 2.838 21.163Q1.85 20.175 1.85 18.75V5.25Q1.85 3.825 2.838 2.837Q3.825 1.85 5.25 1.85H18.75Q20.175 1.85 21.163 2.837Q22.15 3.825 22.15 5.25V18.75Q22.15 20.175 21.163 21.163Q20.175 22.15 18.75 22.15Z"/></svg>
